X:1
T:Title
L:1/8
Q:1/4=90
M:6/8
K:C
V:1 treble nm="Church Organ, Staff"
V:1
 ced c B2 | B A2 A G2 | G c2 c f2 | e d2- d d2 | d e2 e d2 | G c2 BA>B | c d2 d B2 | B c2- c c2 | %8
w: By~Arranged~by~Mr.~Herbert~Stephen~Irons * * * *||||||||
 GB>A G c2 | d e2 d c2 | c c2 B A2 | A A2- A A2 | c e2 e e2 | d e2- e e2 | G c2 cc>d | B c2- c c2 | %16
w: ||||||||
 G c2 cBc | de>d e c2 | e d2 d c2 | B c2- c c2 |] %20
w: ||||

